X: 72
T: Hamborg, op og ned
B:[[Notböcker/Melodier til gamle danske Almuedanse for Violin solo]]
O:Danmark
Z:Søren Bak Vestergaard
M: 2/4
L: 1/8
K: G
!downbow!GB/d/ gf/e/|(.d.B) B2|cc AA|G/F/G/A/ BG|GB/d/ gf/e/|\
(.d.B) B2|cc AA|GGG z:| |:dd BB|A/G/A/B/ cc|ee AA|\
G/!4!A/G/A/ BG|dd BB|A/G/A/B/ cc|aa fe/f/|ggg z:|

